src/icons/brand/glyph/TwitchIcon.svg

<svg width="24" height="24" viewBox="0 0 24 24" fill="none" xmlns="http://www.w3.org/2000/svg">
<path d="M3.30334 2.00002L2 5.47918V19.3908H6.78V22H9.39L11.9958 19.39H15.9083L21.125 14.175V2L3.30334 2.00002ZM5.04166 3.73752H19.3875V13.3034L16.3442 16.3467H11.5625L8.95666 18.9525V16.3467H5.04166V3.73752ZM9.825 12.435H11.5625V7.21836H9.825V12.435ZM14.6042 12.435H16.3425V7.21836H14.6042V12.435Z" fill="currentColor"/>
</svg>

<svg xmlns="http://www.w3.org/2000/svg" width="24" height="24" fill="currentColor" viewBox="0 0 24 24">
  <path d="M3.303 2 2 5.48v13.91h4.78V22h2.61l2.606-2.61h3.912l5.217-5.215V2H3.303Zm1.739 1.738h14.345v9.565l-3.043 3.044h-4.782l-2.605 2.605v-2.605H5.042V3.737Zm4.783 8.697h1.738V7.218H9.825v5.217Zm4.78 0h1.738V7.218h-1.739v5.217Z"/>
</svg>
